epam-assets/icon-sources/18/editor-format_subscript.svg

<svg width="18" height="18" viewBox="0 0 18 18" fill="none" xmlns="http://www.w3.org/2000/svg">
<g id="18/editor-format_subscript">
<path id="icon" fill-rule="evenodd" clip-rule="evenodd" d="M11.25 5.5575L7.8075 9L11.25 12.4425L10.1925 13.5L6.75 10.0575L3.3075 13.5L2.25 12.4425L5.6925 9L2.25 5.5575L3.3075 4.5L6.75 7.9425L10.1925 4.5L11.25 5.5575ZM15.6375 15.7725H11.9775V15.0225L12.645 14.4225C13.215 13.935 13.635 13.53 13.92 13.2C14.1975 12.87 14.34 12.5625 14.3475 12.27C14.355 12.06 14.2875 11.8875 14.145 11.745C14.01 11.625 13.7925 11.535 13.5 11.535C13.2675 11.535 13.065 11.58 12.87 11.67L12.375 11.955L12.0375 11.0775C12.24 10.92 12.48 10.785 12.7725 10.68C13.065 10.575 13.3875 10.5 13.74 10.5C14.325 10.53 14.775 10.6875 15.075 10.995C15.375 11.3025 15.54 11.6925 15.54 12.1725C15.5325 12.5925 15.3975 12.9825 15.135 13.335C14.88 13.6875 14.565 14.025 14.1825 14.355L13.7025 14.745V14.76H15.6375V15.7725Z" fill="#6C6F80"/>
</g>
</svg>

<svg xmlns="http://www.w3.org/2000/svg" width="18" height="18" fill="none" viewBox="0 0 18 18">
  <path fill="#6C6F80" fill-rule="evenodd" d="M11.25 5.558 7.808 9l3.442 3.443-1.057 1.057-3.443-3.443L3.308 13.5 2.25 12.443 5.692 9 2.25 5.558 3.308 4.5 6.75 7.942 10.193 4.5l1.057 1.058Zm4.387 10.215h-3.66v-.75l.668-.6c.57-.488.99-.893 1.275-1.223.277-.33.42-.637.428-.93a.673.673 0 0 0-.203-.525c-.135-.12-.352-.21-.645-.21a1.46 1.46 0 0 0-.63.135l-.495.285-.338-.877a2.62 2.62 0 0 1 .736-.398c.292-.105.614-.18.967-.18.585.03 1.035.188 1.335.495.3.308.465.698.465 1.178a1.97 1.97 0 0 1-.405 1.162c-.255.352-.57.69-.953 1.02l-.48.39v.015h1.935v1.013Z" clip-rule="evenodd"/>
</svg>
